; AI-GENERATED VARCPU COMPILATION CORE V3
G21
G90
G0 X1175.00 Y1000.00
M3
G1 X1170.79 Y969.88 F51
G1 X1161.49 Y941.22 F52
G1 X1147.46 Y914.86 F53
G1 X1129.23 Y891.56 F54
G1 X1107.43 Y871.97 F55
G1 X1082.78 Y856.62 F56
G1 X1056.08 Y845.91 F56
G1 X1028.20 Y840.06 F57
G1 X1000.00 Y839.17 F58
G1 X972.34 Y843.16 F59
G1 X946.07 Y851.82 F60
G1 X921.94 Y864.80 F61
G1 X900.67 Y881.62 F62
G1 X882.82 Y901.68 F63
G1 X868.89 Y924.31 F64
G1 X859.22 Y948.76 F65
G1 X854.01 Y974.26 F66
G1 X853.33 Y1000.00 F67
G1 X857.11 Y1025.20 F68
G1 X865.14 Y1049.09 F69
G1 X877.07 Y1070.97 F69
G1 X892.47 Y1090.23 F70
G1 X910.78 Y1106.32 F71
G1 X931.39 Y1118.84 F72
G1 X953.61 Y1127.47 F73
G1 X976.72 Y1132.04 F74
G1 X1000.00 Y1132.50 F75
G1 X1022.74 Y1128.94 F76
G1 X1044.24 Y1121.55 F77
G1 X1063.89 Y1110.66 F78
G1 X1081.12 Y1096.68 F79
G1 X1095.47 Y1080.11 F80
G1 X1106.57 Y1061.53 F81
G1 X1114.16 Y1041.55 F81
G1 X1118.09 Y1020.82 F82
G1 X1118.33 Y1000.00 F83
G1 X1114.99 Y979.72 F84
G1 X1108.24 Y960.60 F85
G1 X1098.39 Y943.19 F86
G1 X1085.83 Y927.98 F87
G1 X1071.00 Y915.38 F88
G1 X1054.44 Y905.70 F89
G1 X1036.70 Y899.16 F90
G1 X1018.36 Y895.87 F91
G1 X1000.00 Y895.83 F92
G1 X982.18 Y898.97 F93
G1 X965.45 Y905.07 F94
G1 X950.28 Y913.88 F94
G1 X937.09 Y925.03 F95
G1 X926.23 Y938.10 F96
G1 X917.97 Y952.64 F97
G1 X912.47 Y968.14 F98
G1 X909.82 Y984.10 F99
G1 X910.00 Y1000.00 F100
G1 X912.92 Y1015.36 F101
G1 X918.39 Y1029.71 F102
G1 X926.15 Y1042.64 F103
G1 X935.88 Y1053.80 F104
G1 X947.21 Y1062.91 F105
G1 X959.72 Y1069.76 F106
G1 X972.99 Y1074.22 F106
G1 X986.56 Y1076.23 F107
G1 X1000.00 Y1075.83 F108
G1 X1012.89 Y1073.13 F109
G1 X1024.86 Y1068.30 F110
G1 X1035.56 Y1061.58 F111
G1 X1044.70 Y1053.27 F112
G1 X1052.06 Y1043.69 F113
G1 X1057.49 Y1033.19 F114
G1 X1060.91 Y1022.17 F115
G1 X1062.28 Y1010.98 F116
G1 X1061.67 Y1000.00 F117
G1 X1059.18 Y989.57 F118
G1 X1054.99 Y979.99 F119
G1 X1049.32 Y971.53 F119
G1 X1042.42 Y964.41 F120
G1 X1034.58 Y958.79 F121
G1 X1026.11 Y954.77 F122
G1 X1017.32 Y952.41 F123
G1 X1008.52 Y951.67 F124
G1 X1000.00 Y952.50 F125
G1 X992.03 Y954.77 F126
G1 X984.83 Y958.32 F127
G1 X978.61 Y962.95 F128
G1 X973.51 Y968.44 F129
G1 X969.64 Y974.53 F130
G1 X967.04 Y980.97 F131
G1 X965.72 Y987.52 F131
G1 X965.62 Y993.94 F132
G1 X966.67 Y1000.00 F133
G1 X968.72 Y1005.51 F134
G1 X971.64 Y1010.32 F135
G1 X975.22 Y1014.31 F136
G1 X979.29 Y1017.38 F137
G1 X983.63 Y1019.51 F138
G1 X988.06 Y1020.69 F139
G1 X992.37 Y1020.97 F140
G1 X996.40 Y1020.43 F141
G1 X1000.00 Y1019.17 F142
G1 X1003.05 Y1017.33 F143
G1 X1005.48 Y1015.05 F144
G1 X1007.22 Y1012.51 F144
G1 X1008.27 Y1009.86 F145
G1 X1008.65 Y1007.26 F146
G1 X1008.42 Y1004.86 F147
G1 X1007.66 Y1002.79 F148
G1 X1006.47 Y1001.14 F149
G1 X1005.00 Y1000.00 F150
M5
